src/assets/icons/fa/viadeo-square.svg

<?xml version="1.0" encoding="utf-8"?>
<svg width="1792" height="1792" viewBox="0 0 1792 1792" xmlns="http://www.w3.org/2000/svg"><path d="M1178 1041q0-78-28-147-41 25-85 34 22 50 22 114 0 117-77 198.5t-193 81.5-193.5-81.5-77.5-198.5q0-115 78-199.5t193-84.5q53 0 98 19 4-43 27-87-60-21-125-21-154 0-257.5 108.5t-103.5 263.5 103.5 261 257.5 106 257.5-106.5 103.5-260.5zm-178-355q2 24 2 71 0 63-5 123t-20.5 132.5-40.5 130-68.5 106-100.5 70.5q21 3 42 3h10q219-139 219-411 0-116-38-225zm0 0q-4-80-44-171.5t-98-130.5q92 156 142 302zm335-105q0-102-51-174-41 86-124 109-69 19-109 53.5t-40 99.5q0 40 24 77 74-17 140.5-67t95.5-115q-4 52-74.5 111.5t-138.5 97.5q52 52 110 52 51 0 90-37t60-90q17-42 17-117zm329-165v960q0 119-84.5 203.5t-203.5 84.5h-960q-119 0-203.5-84.5t-84.5-203.5v-960q0-119 84.5-203.5t203.5-84.5h960q119 0 203.5 84.5t84.5 203.5z"/></svg>

<svg width="1792" height="1792" xmlns="http://www.w3.org/2000/svg"><path d="M1178 1041q0-78-28-147-41 25-85 34 22 50 22 114 0 117-77 198.5T817 1322t-193.5-81.5T546 1042q0-115 78-199.5T817 758q53 0 98 19 4-43 27-87-60-21-125-21-154 0-257.5 108.5T456 1041t103.5 261T817 1408t257.5-106.5T1178 1041zm-178-355q2 24 2 71 0 63-5 123t-20.5 132.5-40.5 130-68.5 106T767 1319q21 3 42 3h10q219-139 219-411 0-116-38-225zm0 0q-4-80-44-171.5T858 384q92 156 142 302zm335-105q0-102-51-174-41 86-124 109-69 19-109 53.5t-40 99.5q0 40 24 77 74-17 140.5-67t95.5-115q-4 52-74.5 111.5T1058 773q52 52 110 52 51 0 90-37t60-90q17-42 17-117zm329-165v960q0 119-84.5 203.5T1376 1664H416q-119 0-203.5-84.5T128 1376V416q0-119 84.5-203.5T416 128h960q119 0 203.5 84.5T1664 416z"/></svg>
